X: 1
T: Gammal Polska fr\aan F\"ollinge
S: efter Klintetten [9/95]
S: Bruce Sagan's "scanfolk" session archive
F: BlueRoseMusic.org (#1916)  [from Karen Myers]
R: polska
Z: 2021 John Chambers <jc:trillian.mit.edu>
M: 3/4
L: 1/8
K: Dm
|:\
(3a(ba) (3g(ag) f>e | (3g(ag) (3f(gf) e>^c | d>e f<g a>f | (3d(ed) (3^c(ec) A2- |
(3a(ba) (3g(ag) f>e | (3g(ag) (3f(gf) e>^c | d>e f<g a>f | (3(^cec) [d4D4] :|
|:\
F>A E<^C D>E | (3F(AF) E2 D2 | A>^c d>e f>e | (3d(ed) (3^c(ec) (A2 |
F)>A E<^C D>E | (3F(AF) E2 D2 | A>^c d>e f>e |1 (3(^cec) [d4D4] :|2 (3(^cec) [d2-D2-] [dD]A- ||
|:\
(3A2 .a2 .g2 f>A | (3A2 .g2 .f2 e>^c | d>e f<g a>f | (3d(ed) (3^c(ec) A2- |
(3A2 .a2 .g2 f>A | (3A2 .g2 .f2 e>^c | d>e f<g a>f | (3(^cec) [d4D4] :|
